X:9
T:No.42 The Teelin Highland
C:highland
M:4/4
L:1/8
K:D
(3Bcd eg fdeA|(3Bcd ef gfgA|(3Bcd eg fdea|
|[1gedB A2 AG:|[2gedB A2 A^g||a2 ea fded|
cABA cee^g|a2 ea fdea|gedB A2 A^g|a2 ea faea|
cABA cee^g|a2 eg fefa|gedB A2 A2||
